X: 42424
T: West Fork Gals
R: polka
M: 2/4
K: Dmajor
f4|A2 ef|g2 g2|B2>d2|ef ed|c2 A2|AB AG|FAD2|
f4|A2 ef|g2 g2|B2 Bd|ef ed|c2 A2|AB AF|d4:|
A2>G2|F2 A2|d2 F2|A2>F2|G2 F2|E2>F2|G2 F2|E2 cd|
ef ed|c2 A2|AB AG|F2 D2|d2 cd|ef ge|f2 d2|d4:|

